icons-dark-themes/actions/toolbar-dark/mail-forwarded.svg

<?xml version="1.0" encoding="UTF-8" standalone="no"?>
<!-- Created with Inkscape (http://www.inkscape.org/) -->

<svg
   xmlns:dc="http://purl.org/dc/elements/1.1/"
   xmlns:cc="http://creativecommons.org/ns#"
   xmlns:rdf="http://www.w3.org/1999/02/22-rdf-syntax-ns#"
   xmlns:svg="http://www.w3.org/2000/svg"
   xmlns="http://www.w3.org/2000/svg"
   xmlns:sodipodi="http://sodipodi.sourceforge.net/DTD/sodipodi-0.dtd"
   xmlns:inkscape="http://www.inkscape.org/namespaces/inkscape"
   width="22"
   height="22"
   id="svg3869"
   version="1.1"
   inkscape:version="0.91pre2 r"
   sodipodi:docname="mail-forwarded.svg">
  <defs
     id="defs3871" />
  <sodipodi:namedview
     id="base"
     pagecolor="#ffffff"
     bordercolor="#666666"
     borderopacity="1.0"
     inkscape:pageopacity="0.0"
     inkscape:pageshadow="2"
     inkscape:zoom="181.01934"
     inkscape:cx="17.949027"
     inkscape:cy="16.635987"
     inkscape:document-units="px"
     inkscape:current-layer="layer1"
     showgrid="true"
     fit-margin-top="0"
     fit-margin-left="0"
     fit-margin-right="0"
     fit-margin-bottom="0"
     inkscape:window-width="1366"
     inkscape:window-height="673"
     inkscape:window-x="-4"
     inkscape:window-y="24"
     inkscape:window-maximized="1"
     inkscape:showpageshadow="false">
    <inkscape:grid
       type="xygrid"
       id="grid4132" />
    <sodipodi:guide
       position="2,20.000017"
       orientation="18,0"
       id="guide4138" />
    <sodipodi:guide
       position="2,2.0000174"
       orientation="0,18"
       id="guide4140" />
    <sodipodi:guide
       position="20,2.0000174"
       orientation="-18,0"
       id="guide4142" />
    <sodipodi:guide
       position="20,20.000017"
       orientation="0,-18"
       id="guide4144" />
    <sodipodi:guide
       position="3,19.000017"
       orientation="16,0"
       id="guide4146" />
    <sodipodi:guide
       position="3,3.0000174"
       orientation="0,16"
       id="guide4148" />
    <sodipodi:guide
       position="19,3.0000174"
       orientation="-16,0"
       id="guide4150" />
    <sodipodi:guide
       position="19,19.000017"
       orientation="0,-16"
       id="guide4152" />
    <sodipodi:guide
       position="0,9.0000174"
       orientation="6,0"
       id="guide4181" />
    <sodipodi:guide
       position="0,3.0000174"
       orientation="0,22"
       id="guide4183" />
    <sodipodi:guide
       position="22,3.0000174"
       orientation="-6,0"
       id="guide4185" />
    <sodipodi:guide
       position="-1,19.000017"
       orientation="16,0"
       id="guide4193" />
    <sodipodi:guide
       position="-1,3.0000174"
       orientation="0,12"
       id="guide4195" />
    <sodipodi:guide
       position="11,3.0000174"
       orientation="-16,0"
       id="guide4197" />
    <sodipodi:guide
       position="11,19.000017"
       orientation="0,-12"
       id="guide4199" />
    <sodipodi:guide
       position="11,9.048828"
       orientation="-1.414063,0"
       id="guide4223" />
    <sodipodi:guide
       position="2.4628906,19"
       orientation="0,-1.4140625"
       id="guide4227" />
    <sodipodi:guide
       position="11,9.04883"
       orientation="-1.41406,0"
       id="guide4233" />
    <sodipodi:guide
       position="19.53711,19"
       orientation="0,1.41406"
       id="guide4237" />
    <sodipodi:guide
       position="14,10.000017"
       orientation="7,0"
       id="guide4158" />
    <sodipodi:guide
       position="14,3.0000174"
       orientation="0,7"
       id="guide4160" />
    <sodipodi:guide
       position="21,3.0000174"
       orientation="-7,0"
       id="guide4162" />
    <sodipodi:guide
       position="21,10.000017"
       orientation="0,-7"
       id="guide4164" />
    <sodipodi:guide
       position="15,9.0000174"
       orientation="6,0"
       id="guide4168" />
    <sodipodi:guide
       position="15,3.0000174"
       orientation="0,6"
       id="guide4170" />
    <sodipodi:guide
       position="21,3.0000174"
       orientation="-6,0"
       id="guide4172" />
    <sodipodi:guide
       position="21,9.0000174"
       orientation="0,-6"
       id="guide4174" />
  </sodipodi:namedview>
  <metadata
     id="metadata3874">
    <rdf:RDF>
      <cc:Work
         rdf:about="">
        <dc:format>image/svg+xml</dc:format>
        <dc:type
           rdf:resource="http://purl.org/dc/dcmitype/StillImage" />
        <dc:title />
      </cc:Work>
    </rdf:RDF>
  </metadata>
  <g
     inkscape:label="Capa 1"
     inkscape:groupmode="layer"
     id="layer1"
     transform="translate(-326,-534.3622)">
    <path
       style="opacity:1;fill:#f2f2f2;fill-opacity:1;stroke:none;stroke-width:2.79999995;stroke-miterlimit:4;stroke-dasharray:none;stroke-opacity:0.55026455"
       d="M 3,3 3,4 3,5 3,6 1,9 1,10 1,11.400391 1,12 1,18 1,18.414062 1,19 l 1,0 6,0 6,0 0,-1 L 2,18 2,17.414062 2,16 2,12 2,11 2,10.400391 2,10 2.4003906,10 3,10 4.078125,10 11,13.996094 17.921875,10 18,10 l 1,0 1,0 0,0.400391 L 20,11 l 0,1 1,0 0,-0.599609 L 21,9.9863281 21,9 19,6 19,3 4,3 Z M 4,4 18,4 18,5 18,8.7988281 11,12.839844 4,8.7988281 4,5 Z M 5,5 5,5.9863281 4.9863281,6 5,6 17,6 17.013672,6 17,5.9863281 17,5 Z m 0,2 0,1 7,0 0,-1 z"
       transform="translate(326,534.3622)"
       id="rect4144"
       inkscape:connector-curvature="0"
       sodipodi:nodetypes="ccccccccccccccccccccccccccccccccccccccccccccccccccccccccccccccc" />
    <path
       inkscape:connector-curvature="0"
       style="fill:#f2f2f2;fill-opacity:1;stroke:none"
       d="m 347.207,549.8622 -0.207,0.20703 -3.293,3.29297 -0.707,-0.70703 2.2929,-2.29297 -4.2929,0 0,-1 4.2929,0 -2.2929,-2.29297 0.707,-0.70703 3.293,3.29297 0.207,0.20703 z"
       id="rect4071" />
  </g>
</svg>

<?xml version="1.0" encoding="UTF-8" standalone="no"?>
<!-- Created with Inkscape (http://www.inkscape.org/) -->

<svg
   xmlns:dc="http://purl.org/dc/elements/1.1/"
   xmlns:cc="http://creativecommons.org/ns#"
   xmlns:rdf="http://www.w3.org/1999/02/22-rdf-syntax-ns#"
   xmlns:svg="http://www.w3.org/2000/svg"
   xmlns="http://www.w3.org/2000/svg"
   xmlns:sodipodi="http://sodipodi.sourceforge.net/DTD/sodipodi-0.dtd"
   xmlns:inkscape="http://www.inkscape.org/namespaces/inkscape"
   width="22"
   height="22"
   id="svg3869"
   version="1.1"
   inkscape:version="0.48+devel r"
   sodipodi:docname="mail-forwaded.svg">
  <defs
     id="defs3871" />
  <sodipodi:namedview
     id="base"
     pagecolor="#ffffff"
     bordercolor="#666666"
     borderopacity="1.0"
     inkscape:pageopacity="0.0"
     inkscape:pageshadow="2"
     inkscape:zoom="22.627417"
     inkscape:cx="14.784115"
     inkscape:cy="9.9657872"
     inkscape:document-units="px"
     inkscape:current-layer="layer1"
     showgrid="true"
     fit-margin-top="0"
     fit-margin-left="0"
     fit-margin-right="0"
     fit-margin-bottom="0"
     inkscape:window-width="1366"
     inkscape:window-height="666"
     inkscape:window-x="-2"
     inkscape:window-y="25"
     inkscape:window-maximized="1"
     inkscape:showpageshadow="false">
    <inkscape:grid
       type="xygrid"
       id="grid4132" />
    <sodipodi:guide
       position="2,20.000017"
       orientation="18,0"
       id="guide4138" />
    <sodipodi:guide
       position="2,2.0000174"
       orientation="0,18"
       id="guide4140" />
    <sodipodi:guide
       position="20,2.0000174"
       orientation="-18,0"
       id="guide4142" />
    <sodipodi:guide
       position="20,20.000017"
       orientation="0,-18"
       id="guide4144" />
    <sodipodi:guide
       position="3,19.000017"
       orientation="16,0"
       id="guide4146" />
    <sodipodi:guide
       position="3,3.0000174"
       orientation="0,16"
       id="guide4148" />
    <sodipodi:guide
       position="19,3.0000174"
       orientation="-16,0"
       id="guide4150" />
    <sodipodi:guide
       position="19,19.000017"
       orientation="0,-16"
       id="guide4152" />
    <sodipodi:guide
       position="0,9.0000174"
       orientation="6,0"
       id="guide4181" />
    <sodipodi:guide
       position="0,3.0000174"
       orientation="0,22"
       id="guide4183" />
    <sodipodi:guide
       position="22,3.0000174"
       orientation="-6,0"
       id="guide4185" />
    <sodipodi:guide
       position="-1,19.000017"
       orientation="16,0"
       id="guide4193" />
    <sodipodi:guide
       position="-1,3.0000174"
       orientation="0,12"
       id="guide4195" />
    <sodipodi:guide
       position="11,3.0000174"
       orientation="-16,0"
       id="guide4197" />
    <sodipodi:guide
       position="11,19.000017"
       orientation="0,-12"
       id="guide4199" />
    <sodipodi:guide
       position="11,9.048828"
       orientation="-1.414063,0"
       id="guide4223" />
    <sodipodi:guide
       position="2.4628906,19"
       orientation="0,-1.4140625"
       id="guide4227" />
    <sodipodi:guide
       position="11,9.04883"
       orientation="-1.41406,0"
       id="guide4233" />
    <sodipodi:guide
       position="19.53711,19"
       orientation="0,1.41406"
       id="guide4237" />
    <sodipodi:guide
       position="14,10.000017"
       orientation="7,0"
       id="guide4158" />
    <sodipodi:guide
       position="14,3.0000174"
       orientation="0,7"
       id="guide4160" />
    <sodipodi:guide
       position="21,3.0000174"
       orientation="-7,0"
       id="guide4162" />
    <sodipodi:guide
       position="21,10.000017"
       orientation="0,-7"
       id="guide4164" />
    <sodipodi:guide
       position="15,9.0000174"
       orientation="6,0"
       id="guide4168" />
    <sodipodi:guide
       position="15,3.0000174"
       orientation="0,6"
       id="guide4170" />
    <sodipodi:guide
       position="21,3.0000174"
       orientation="-6,0"
       id="guide4172" />
    <sodipodi:guide
       position="21,9.0000174"
       orientation="0,-6"
       id="guide4174" />
  </sodipodi:namedview>
  <metadata
     id="metadata3874">
    <rdf:RDF>
      <cc:Work
         rdf:about="">
        <dc:format>image/svg+xml</dc:format>
        <dc:type
           rdf:resource="http://purl.org/dc/dcmitype/StillImage" />
        <dc:title />
      </cc:Work>
    </rdf:RDF>
  </metadata>
  <g
     inkscape:label="Capa 1"
     inkscape:groupmode="layer"
     id="layer1"
     transform="translate(-326,-534.3622)">
    <path
       style="opacity:1;fill:#f2f2f2;fill-opacity:1;stroke:none;stroke-width:2.79999995;stroke-miterlimit:4;stroke-dasharray:none;stroke-opacity:0.55026455"
       d="M 3 3 L 3 4 L 3 5 L 3 6 L 1 9 L 1 10 L 1 11.400391 L 1 12 L 1 18 L 1 18.414062 L 1 19 L 2 19 L 8 19 L 14 19 L 14 18 L 2 18 L 2 17.414062 L 2 16 L 2 12 L 2 11 L 2 10.400391 L 2 10 L 2.4003906 10 L 3 10 L 4.078125 10 L 11 13.996094 L 17.921875 10 L 18 10 L 19 10 L 20 10 L 20 10.400391 L 20 11 L 20 12 L 21 12 L 21 11.400391 L 21 9.9863281 L 21 9 L 19 5 L 19 3 L 4 3 L 3 3 z M 4 4 L 18 4 L 18 5 L 18 8.7988281 L 11 12.839844 L 4 8.7988281 L 4 5 L 4 4 z M 5 5 L 5 5.9863281 L 4.9863281 6 L 5 6 L 17 6 L 17.013672 6 L 17 5.9863281 L 17 5 L 5 5 z M 5 7 L 5 8 L 12 8 L 12 7 L 5 7 z "
       transform="translate(326,534.3622)"
       id="rect4144" />
    <path
       inkscape:connector-curvature="0"
       style="fill:#f2f2f2;fill-opacity:1;stroke:none"
       d="m 347.207,549.8622 -0.207,0.20703 -3.293,3.29297 -0.707,-0.70703 2.2929,-2.29297 -4.2929,0 0,-1 4.2929,0 -2.2929,-2.29297 0.707,-0.70703 3.293,3.29297 0.207,0.20703 z"
       id="rect4071" />
  </g>
</svg>
